src/assets/img/home-page/detection-edge.svg

<svg width="357" height="317" viewBox="0 0 357 317" fill="none" xmlns="http://www.w3.org/2000/svg">
<path d="M179.026 114.633V55.3523L126.236 82.6212V133.161L179.026 114.633Z" fill="#40BE46"/>
<path d="M179.026 203.553V137.159L126.236 152.192V209.147L179.026 203.553Z" fill="#40BE46"/>
<path d="M179.026 292.474V226.08L126.236 228.177V285.132L179.026 292.474Z" fill="#40BE46"/>
<path d="M0.5 148.134L24.3977 135.79V168.376L0.5 176.764V148.134ZM0.5 188.518L24.3977 181.712V219.435L0.5 221.967V188.518ZM24.3977 270.464L0.5 267.141V233.674L24.3977 232.724V270.464ZM70.4508 112.001L114.262 89.3696L114.347 136.805L70.4508 152.212V112.001ZM70.4508 214.555V168.598L114.261 156.122V209.913L70.4508 214.555ZM70.4508 230.894L114.261 229.153V282.962L70.4508 276.869V230.894ZM61.1515 231.264V275.576L31.3258 271.428V232.449L61.1515 231.264ZM31.3258 165.945V132.211L61.1515 116.804V155.476L31.3258 165.945ZM31.3258 218.701V179.74L61.1515 171.246V215.54L31.3258 218.701Z" stroke="#A5A5A5"/>
<path d="M356.368 148.133L332.635 135.792V168.377L356.368 176.763V148.133ZM356.368 188.517L332.635 181.713V219.435L356.368 221.966V188.517ZM332.635 270.463L356.368 267.141V233.673L332.635 232.724V270.463ZM286.88 111.999L243.366 89.3719L243.282 136.806L286.88 152.21V111.999ZM286.88 214.554V168.597L243.367 156.123V209.913L286.88 214.554ZM286.88 230.894L243.367 229.153V282.961L286.88 276.869V230.894ZM296.125 231.264V275.575L325.746 271.428V232.449L296.125 231.264ZM325.746 165.943V132.21L296.125 116.806V155.477L325.746 165.943ZM325.746 218.7V179.739L296.125 171.247V215.54L325.746 218.7Z" stroke="#A5A5A5"/>
<path d="M179.027 114.633V55.3523L231.467 82.6212V133.161L179.027 114.633Z" fill="#339838"/>
<path d="M179.027 203.553V137.159L231.467 152.192V209.147L179.027 203.553Z" fill="#339838"/>
<path d="M179.027 292.474V226.08L231.467 228.177V285.132L179.027 292.474Z" fill="#339838"/>
<path d="M239.492 2L119.746 70.7652V293.659L239.492 315V2Z" stroke="white" stroke-width="2" stroke-dasharray="2 2"/>
</svg>

<svg xmlns="http://www.w3.org/2000/svg" width="357" height="317" fill="none" viewBox="0 0 357 317">
  <path fill="#40BE46" d="M179.026 114.633v-59.28l-52.79 27.268v50.54l52.79-18.528zM179.026 203.553v-66.394l-52.79 15.033v56.955l52.79-5.594zM179.026 292.474V226.08l-52.79 2.097v56.955l52.79 7.342z"/>
  <path stroke="#A5A5A5" d="M.5 148.134l23.898-12.344v32.586L.5 176.764v-28.63zm0 40.384l23.898-6.806v37.723L.5 221.967v-33.449zm23.898 81.946L.5 267.141v-33.467l23.898-.95v37.74zM70.45 112.001l43.811-22.631.085 47.435-43.896 15.407v-40.211zm0 102.554v-45.957l43.81-12.476v53.791l-43.81 4.642zm0 16.339l43.81-1.741v53.809l-43.81-6.093v-45.975zm-9.3.37v44.312l-29.825-4.148v-38.979l29.825-1.185zm-29.825-65.319v-33.734l29.825-15.407v38.672l-29.825 10.469zm0 52.756V179.74l29.825-8.494v44.294l-29.825 3.161zM356.368 148.133l-23.733-12.341v32.585l23.733 8.386v-28.63zm0 40.384l-23.733-6.804v37.722l23.733 2.531v-33.449zm-23.733 81.946l23.733-3.322v-33.468l-23.733-.949v37.739zM286.88 111.999l-43.514-22.627-.084 47.434 43.598 15.404v-40.211zm0 102.555v-45.957l-43.513-12.474v53.79l43.513 4.641zm0 16.34l-43.513-1.741v53.808l43.513-6.092v-45.975zm9.245.37v44.311l29.621-4.147v-38.979l-29.621-1.185zm29.621-65.321V132.21l-29.621-15.404v38.671l29.621 10.466zm0 52.757v-38.961l-29.621-8.492v44.293l29.621 3.16z"/>
  <g>
    <path fill="#339838" d="M179.027 114.633v-59.28l52.44 27.268v50.54l-52.44-18.528zM179.027 203.553v-66.394l52.44 15.033v56.955l-52.44-5.594zM179.027 292.474V226.08l52.44 2.097v56.955l-52.44 7.342z"/>
  </g>
  <path stroke="#fff" stroke-dasharray="2 2" stroke-width="2" d="M239.492 2L119.746 70.765V293.66L239.492 315V2z"/>
  <path fill="#8C0D0D" d="M179.027 203.553v-66.394l52.44 15.033v56.955l-52.44-5.594z"/>
  <path fill="red" d="M179.026 203.553v-66.394l-52.79 15.033v56.955l52.79-5.594z"/>
</svg>
